X:510
T: DREI WUERFEL UND EIN KARTENSPIEL
N: E1772
O: Europa, Mitteleuropa, Deutschland
R: Scherz - Lied, Spiel
M: 4/4
L: 1/8
K: F
F2 | F2F2A2A2 | c2c2A2
AA | d2c2B2G2 | G2F2G4
F2F2A2A2 | c2c2c4 | z2
A2B2d2 | c2B2A3G | F6

